X:32
T:Miss Farquharson of Invercauld's Jigg
C:Robert Petrie
S:Petrie's Collection of Strathspey Reels and Country Dances &c., 1790
Z:Steve Wyrick , 3/19/04
N:Petrie's First Collection, page 14
L:1/8
V:1 name = "violin"
V:2 name = "bass" clef=bass middle=d transpose=-24
M:6/8
R:Jig
K:Cm
[V:1] C2c c2G|BGB FDB,|C2c c2G|cde edc|
[V:2] ceg ece|zze d3  |ece cde|a3  f3 |
%alternate 1st 3 measures of bass:C3A3|zzed3|C3c3| -SW
[V:1] C2c c2G|BGB FDB,|E3  TFEF|GEC C3:|
[V:2] e3  cde|zze d3  |cGc =B2G|c3  C3:|
[V:1] g2c cde|dcB fdB|Tgfg cdc| gaf gec|
[V:2] c2e c3 |B3  d3 | c3  e3 |=B3  c3 |
[V:1] g2c cde|dcB fdB|efg fed|ecc c2f|
[V:2] cde c3 |B3  d3 |c3  g2G|cGE C2z|
[V:1] g2c cde|dcB fdB|Tgfg cdc| gaf gec|
[V:2] c3  c'3|b3  d'3| c'3 e3 |=b3  c'3|
[V:1] gbg fge|dfb fdB|EFG DEF|GEC C3|]
[V:2] e3  d2c|B3  d3 |c3  G3 |c3  C3|]
% The above code was written using Phil Taylor's BarFly abc reader/converter/player program.
% Other abc converters (e.g. abc2ps) may require everything after the word "bass" to be
% deleted in the V:2 header line for correct display of notes the bass clef, or require that
% the M: and K: fields be repeated directly under the V:1 header line to display the meter
% and key signature on both staffs.  Some abc MIDI players (e.g. abc2midi) will not play
% multiple-voiced abc code.  -SW
